X: 3
T: The Hop
C: Maire Breatnach
M: 12/8
L: 1/8
R: slide
K: Amaj
|: F |\
E2 C A,CE  F2 E A2 B | cd/e/f ecf ecA BAF |
E2 C A,CE  F2 E A2 B | cff ecA BAG A2 :|
|: c |\
efe ecA B^AB c3 | B2 c BAc BAc BB/c/d |
e3 ecA B^AB c2 B | AFE C2 B, A,B,/C/E A2 :|
